src/icons/email.svg

<?xml version="1.0" encoding="UTF-8"?>
<svg width="512px" height="512px" viewBox="0 0 512 512" version="1.1" xmlns="http://www.w3.org/2000/svg" xmlns:xlink="http://www.w3.org/1999/xlink">
    <!-- Generator: Sketch 62 (91390) - https://sketch.com -->
    <title>email</title>
    <desc>Created with Sketch.</desc>
    <g id="email" stroke="none" stroke-width="1" fill="none" fill-rule="evenodd">
        <path d="M419.2,155.891224 C426.5,152.091224 426,156.391224 425.8,159.891224 L425.8,159.891224 L425.8,327.491224 C425.8,334.991224 416.3,344.591224 408.3,344.591224 L408.3,344.591224 L105.1,344.591224 C97.1,344.591224 85.9,335.091224 85.9,327.491224 L85.9,327.491224 L85.9002668,159.758321 C85.9141339,156.380885 86.4948052,152.239276 93.7,155.891224 C100.4,159.391224 161.2,202.191224 201,227.891224 L201,227.891224 L133.9,303.491224 C132.3,305.091224 131.5,307.291224 132.5,308.091224 C133.5,308.991224 135.7,308.491224 137.3,306.891224 L137.3,306.891224 L217.8,238.891224 C229.9,246.691224 238.4,252.091224 240,252.891224 C246.4,256.091224 250.7,256.491224 256.8,256.491224 C262.9,256.491224 267.3,256.091224 273.6,252.891224 C275.1,252.191224 283.6,246.791224 295.8,238.891224 L295.8,238.891224 L376.3,306.891224 C378,308.491224 380.1,308.891224 381.1,308.091224 C381.9,307.091224 381.2,305.091224 379.6,303.491224 L379.6,303.491224 L312.5,227.891224 C352.4,202.091224 412.5,159.291224 419.2,155.891224 Z M412.3,134 C421.3,134 423.6,136.4 421.5,142.6 C420.3,146.1 414.7,149.2 411.3,150.9 C402.3,155.6 277.5,223.7 272.8,226.1 C268.1,228.5 263.5,229.7 256,229.7 C248.5,229.7 243.9,228.5 239.2,226.1 C234.6,223.7 109.7,155.7 100.7,150.9 C97.4,149.2 91.7,146.3 90.5,142.6 C88.3,136.4 90.7,134 99.7,134 L99.7,134 Z" id="Combined-Shape" fill="#000000" fill-rule="nonzero"></path>
    </g>
</svg>

<svg xmlns="http://www.w3.org/2000/svg" width="512" height="512" viewBox="0 0 512 512">
    <path d="M419.2 155.891c7.3-3.8 6.8.5 6.6 4v167.6c0 7.5-9.5 17.1-17.5 17.1H105.1c-8 0-19.2-9.5-19.2-17.1V159.758c.014-3.377.595-7.519 7.8-3.867 6.7 3.5 67.5 46.3 107.3 72l-67.1 75.6c-1.6 1.6-2.4 3.8-1.4 4.6 1 .9 3.2.4 4.8-1.2l80.5-68c12.1 7.8 20.6 13.2 22.2 14 6.4 3.2 10.7 3.6 16.8 3.6 6.1 0 10.5-.4 16.8-3.6 1.5-.7 10-6.1 22.2-14l80.5 68c1.7 1.6 3.8 2 4.8 1.2.8-1 .1-3-1.5-4.6l-67.1-75.6c39.9-25.8 100-68.6 106.7-72zM412.3 134c9 0 11.3 2.4 9.2 8.6-1.2 3.5-6.8 6.6-10.2 8.3-9 4.7-133.8 72.8-138.5 75.2-4.7 2.4-9.3 3.6-16.8 3.6s-12.1-1.2-16.8-3.6c-4.6-2.4-129.5-70.4-138.5-75.2-3.3-1.7-9-4.6-10.2-8.3-2.2-6.2.2-8.6 9.2-8.6z"/>
</svg>
